.local/share/icons/Gruvbox-Plus-Dark/mimetypes/scalable/application-database.svg

<?xml version="1.0" encoding="UTF-8" standalone="no"?>
<svg
   xmlns:dc="http://purl.org/dc/elements/1.1/"
   xmlns:cc="http://creativecommons.org/ns#"
   xmlns:rdf="http://www.w3.org/1999/02/22-rdf-syntax-ns#"
   xmlns:svg="http://www.w3.org/2000/svg"
   xmlns="http://www.w3.org/2000/svg"
   xmlns:sodipodi="http://sodipodi.sourceforge.net/DTD/sodipodi-0.dtd"
   xmlns:inkscape="http://www.inkscape.org/namespaces/inkscape"
   inkscape:version="1.0alpha (0d6517f328, 2019-04-02, custom)"
   sodipodi:docname="application-database.svg"
   id="svg47"
   version="1.1"
   fill="none"
   viewBox="0 0 256 256"
   height="256"
   width="256">
  <metadata
     id="metadata51">
    <rdf:RDF>
      <cc:Work
         rdf:about="">
        <dc:format>image/svg+xml</dc:format>
        <dc:type
           rdf:resource="http://purl.org/dc/dcmitype/StillImage" />
      </cc:Work>
    </rdf:RDF>
  </metadata>
  <sodipodi:namedview
     inkscape:current-layer="svg47"
     inkscape:window-maximized="1"
     inkscape:window-y="32"
     inkscape:window-x="0"
     inkscape:cy="96.492308"
     inkscape:cx="127.01538"
     inkscape:zoom="3.5907766"
     showgrid="false"
     id="namedview49"
     inkscape:window-height="816"
     inkscape:window-width="1600"
     inkscape:pageshadow="2"
     inkscape:pageopacity="0"
     guidetolerance="10"
     gridtolerance="10"
     objecttolerance="10"
     borderopacity="1"
     inkscape:document-rotation="0"
     bordercolor="#665c54"
     pagecolor="#ebdbb2" />
  <g
     id="g4"
     filter="url(#filter0_f)"
     opacity="0.4">
    <path
       id="path2"
       fill="#282828"
       d="M55.0839 15.5636H155.608L216.009 75.7129L216.011 224.609C216.011 233.52 208.749 240.737 199.838 240.737H55.0838C46.1734 240.737 39 233.564 39 224.654V31.6474C39 22.737 46.1734 15.5636 55.0838 15.5636H55.0839Z" />
  </g>
  <path
     id="path6"
     fill="#ebdbb2"
     d="M55.0839 15H155.608L216.009 75.1493L216.011 224.045C216.011 232.956 208.749 240.174 199.838 240.174H55.0838C46.1734 240.174 39 233 39 224.09V31.0838C39 22.1734 46.1734 15 55.0838 15H55.0839Z" />
  <path
     id="path8"
     fill="url(#paint0_linear)"
     d="M155.609 22.9787H55.0839C50.58 22.9787 46.9787 26.5799 46.9787 31.0838V224.09C46.9787 228.594 50.5799 232.195 55.0838 232.195H199.838C204.371 232.195 208.032 228.521 208.032 224.046V75.1493L155.609 22.9787ZM155.608 15H55.0839C46.1735 15 39 22.1734 39 31.0838V224.09C39 233 46.1734 240.174 55.0838 240.174H199.838C208.749 240.174 216.011 232.956 216.011 224.045L216.009 75.1493L155.608 15Z"
     clip-rule="evenodd"
     fill-rule="evenodd" />
  <path
     d="M 128.00391 68 C 113.28291 68 99.773228 70.2883 89.798828 74.125 C 84.824928 76.0382 80.525891 78.415413 77.400391 81.257812 C 74.518891 83.878214 72.364822 87.161812 72.044922 91.007812 L 72 91.007812 L 72 116.00586 L 72 140.00586 L 72 164.00586 C 72.0034 169.48186 75.727706 173.98308 80.753906 177.33008 C 85.875506 180.74108 92.959118 183.40861 101.13672 185.22461 C 109.35972 187.05061 118.62091 188 128.00391 188 C 137.38791 188 146.64614 187.05061 154.86914 185.22461 C 163.04614 183.40861 170.13191 180.74108 175.25391 177.33008 C 180.27991 173.98308 184.00286 169.48186 184.00586 164.00586 L 184.00195 164.00586 L 184.00195 140.09766 C 184.00221 140.06672 184.00584 140.03685 184.00586 140.00586 L 184.00195 140.00586 L 184.00195 116.09766 C 184.00221 116.06673 184.00584 116.03685 184.00586 116.00586 L 184.00195 116.00586 L 184.00195 92.025391 L 184.00195 92.001953 L 184.00195 91.978516 L 184.00195 91.007812 L 183.96094 91.007812 C 183.64094 87.161813 181.48942 83.878214 178.60742 81.257812 C 175.48242 78.415413 171.18103 76.0382 166.20703 74.125 C 156.23303 70.2883 142.72591 68 128.00391 68 z M 127.36328 76.142578 A 46.918411 15.20339 0 0 1 127.57227 76.142578 A 46.918411 15.20339 0 0 1 174.49023 91.345703 A 46.918411 15.20339 0 0 1 127.57227 106.54883 A 46.918411 15.20339 0 0 1 80.654297 91.345703 A 46.918411 15.20339 0 0 1 127.36328 76.142578 z M 80 104.82227 C 82.7525 106.76527 86.088428 108.45191 89.798828 109.87891 C 99.773228 113.71591 113.28291 116.00391 128.00391 116.00391 C 142.72591 116.00391 156.23303 113.71591 166.20703 109.87891 C 169.91603 108.45291 173.25095 106.76722 176.00195 104.82422 L 176.00195 116.04492 C 175.98134 117.59113 174.88415 119.96366 170.81836 122.67188 C 166.81136 125.33987 160.76772 127.72006 153.13672 129.41406 C 145.54972 131.09906 136.87691 132 128.00391 132 C 119.13191 132 110.45809 131.09906 102.87109 129.41406 C 95.240398 127.72006 89.196753 125.33988 85.189453 122.67188 C 81.086753 119.93887 80.001 117.545 80 116 L 80 104.82227 z M 80 128.78711 C 80.25322 128.9668 80.49335 129.15657 80.753906 129.33008 C 85.875506 132.74108 92.959018 135.40861 101.13672 137.22461 C 109.35972 139.05061 118.62091 140 128.00391 140 C 137.38791 140 146.64614 139.05061 154.86914 137.22461 C 163.04714 135.40861 170.13191 132.74108 175.25391 129.33008 C 175.51248 129.15789 175.7506 128.9693 176.00195 128.79102 L 176.00195 140.04492 C 175.98134 141.59113 174.88415 143.96366 170.81836 146.67188 C 166.81136 149.34088 160.76772 151.72006 153.13672 153.41406 C 145.54972 155.09906 136.87691 156 128.00391 156 C 119.13191 156 110.45809 155.09906 102.87109 153.41406 C 95.240398 151.72006 89.196753 149.34088 85.189453 146.67188 C 81.086753 143.93888 80.001 141.545 80 140 L 80 128.78711 z M 80 152.78711 C 80.25322 152.9668 80.49335 153.15657 80.753906 153.33008 C 85.875506 156.74108 92.959018 159.40861 101.13672 161.22461 C 109.35972 163.05061 118.62091 164 128.00391 164 C 137.38791 164 146.64614 163.05061 154.86914 161.22461 C 163.04714 159.40861 170.13191 156.74108 175.25391 153.33008 C 175.51248 153.15789 175.7506 152.9693 176.00195 152.79102 L 176.00195 164.00586 L 176.00586 164.00586 C 176.00232 165.55104 174.91654 167.94208 170.81836 170.67188 C 166.81136 173.34088 160.76772 175.72006 153.13672 177.41406 C 145.54972 179.09906 136.87691 180 128.00391 180 C 119.13191 180 110.45809 179.09906 102.87109 177.41406 C 95.240398 175.72006 89.196753 173.34087 85.189453 170.67188 C 81.091569 167.94208 80.003541 165.55104 80 164.00586 C 79.999996 164.00404 80.000001 164.00181 80 164 L 80 152.78711 z "
     style="fill:url(#paint1_linear)"
     id="path10" />
  <path
     id="path14"
     fill="#282828"
     d="M155.608 17V61.2306C155.608 70.141 162.867 77.1605 171.777 77.1605L216.009 77.1493V75.1493L155.608 17Z"
     opacity="0.25" />
  <path
     id="path16"
     fill="url(#paint3_linear)"
     d="M155.608 15V59.2306C155.608 68.141 162.867 75.1605 171.777 75.1605L216.009 75.1493L155.608 15Z" />
  <defs
     id="defs45">
    <filter
       color-interpolation-filters="sRGB"
       filterUnits="userSpaceOnUse"
       height="255.418"
       width="207.255"
       y="0.441412"
       x="23.8778"
       id="filter0_f">
      <feFlood
         id="feFlood18"
         result="BackgroundImageFix"
         flood-opacity="0" />
      <feBlend
         id="feBlend20"
         result="shape"
         in2="BackgroundImageFix"
         in="SourceGraphic"
         mode="normal" />
      <feGaussianBlur
         id="feGaussianBlur22"
         result="effect1_foregroundBlur"
         stdDeviation="7.5611" />
    </filter>
    <linearGradient
       gradientUnits="userSpaceOnUse"
       y2="240.174"
       x2="39"
       y1="15"
       x1="39"
       id="paint0_linear">
      <stop
         id="stop25"
         stop-color="#fabd2f"
         offset="1e-07" />
      <stop
         id="stop27"
         stop-color="#b57614"
         offset="1" />
    </linearGradient>
    <linearGradient
       gradientUnits="userSpaceOnUse"
       y2="188"
       x2="72.0006"
       y1="116"
       x1="72.0006"
       id="paint1_linear">
      <stop
         id="stop30"
         stop-color="#fabd2f"
         offset="1e-07" />
      <stop
         id="stop32"
         stop-color="#b57614"
         offset="1" />
    </linearGradient>
    <linearGradient
       gradientUnits="userSpaceOnUse"
       y2="164.006"
       x2="72.0006"
       y1="68.0006"
       x1="72.0006"
       id="paint2_linear">
      <stop
         id="stop35"
         stop-color="#fabd2f"
         offset="1e-07" />
      <stop
         id="stop37"
         stop-color="#b57614"
         offset="1" />
    </linearGradient>
    <linearGradient
       gradientUnits="userSpaceOnUse"
       y2="75.1605"
       x2="155.608"
       y1="15"
       x1="155.608"
       id="paint3_linear">
      <stop
         id="stop40"
         stop-color="#fabd2f"
         offset="1e-07" />
      <stop
         id="stop42"
         stop-color="#b57614"
         offset="1" />
    </linearGradient>
  </defs>
</svg>

<svg width="256" height="256" fill="none" version="1.1" viewBox="0 0 256 256" xmlns="http://www.w3.org/2000/svg">
  <path d="m55.08 15h100.5l60.4 60.15 2e-3 148.9c0 8.911-7.262 16.13-16.17 16.13h-144.8c-8.91 0-16.08-7.174-16.08-16.08v-193c0-8.91 7.173-16.08 16.08-16.08h1e-4z" fill="#ebdbb2"/>
  <path d="m155.6 22.98h-100.5c-4.504 0-8.105 3.601-8.105 8.105v193c0 4.504 3.601 8.105 8.105 8.105h144.8c4.533 0 8.194-3.674 8.194-8.149v-148.9l-52.42-52.17zm-1e-3 -7.979h-100.5c-8.91 0-16.08 7.173-16.08 16.08v193c0 8.91 7.173 16.08 16.08 16.08h144.8c8.911 0 16.17-7.218 16.17-16.13l-2e-3 -148.9-60.4-60.15z" clip-rule="evenodd" fill="url(#paint0_linear)" fill-rule="evenodd"/>
  <path d="m128 68c-14.72 0-28.23 2.288-38.21 6.125-4.974 1.913-9.273 4.29-12.4 7.133-2.882 2.62-5.036 5.904-5.355 9.75h-0.04492v25 24 24c0.0034 5.476 3.728 9.977 8.754 13.32 5.122 3.411 12.21 6.079 20.38 7.895 8.223 1.826 17.48 2.775 26.87 2.775 9.384 0 18.64-0.9494 26.87-2.775 8.177-1.816 15.26-4.484 20.38-7.895 5.026-3.347 8.749-7.848 8.752-13.32h-0.00391v-23.91c2.6e-4 -0.03094 0.00389-0.06081 0.00391-0.0918h-0.00391v-23.91c2.6e-4 -0.03093 0.00389-0.06081 0.00391-0.0918h-0.00391v-23.98-0.02344-0.02344-0.9707h-0.04101c-0.32-3.846-2.472-7.13-5.354-9.75-3.125-2.842-7.426-5.22-12.4-7.133-9.974-3.837-23.48-6.125-38.2-6.125zm-0.6406 8.143a46.92 15.2 0 0 1 0.209 0 46.92 15.2 0 0 1 46.92 15.2 46.92 15.2 0 0 1-46.92 15.2 46.92 15.2 0 0 1-46.92-15.2 46.92 15.2 0 0 1 46.71-15.2zm-47.36 28.68c2.752 1.943 6.088 3.63 9.799 5.057 9.974 3.837 23.48 6.125 38.21 6.125 14.72 0 28.23-2.288 38.2-6.125 3.709-1.426 7.044-3.112 9.795-5.055v11.22c-0.02061 1.546-1.118 3.919-5.184 6.627-4.007 2.668-10.05 5.048-17.68 6.742-7.587 1.685-16.26 2.586-25.13 2.586-8.872 0-17.55-0.9009-25.13-2.586-7.631-1.694-13.67-4.074-17.68-6.742-4.103-2.733-5.188-5.127-5.189-6.672v-11.18zm0 23.96c0.2532 0.1797 0.4934 0.3695 0.7539 0.543 5.122 3.411 12.21 6.079 20.38 7.895 8.223 1.826 17.48 2.775 26.87 2.775 9.384 0 18.64-0.9494 26.87-2.775 8.178-1.816 15.26-4.484 20.38-7.895 0.2586-0.1722 0.4967-0.3608 0.748-0.5391v11.25c-0.02061 1.546-1.118 3.919-5.184 6.627-4.007 2.669-10.05 5.048-17.68 6.742-7.587 1.685-16.26 2.586-25.13 2.586-8.872 0-17.55-0.9009-25.13-2.586-7.631-1.694-13.67-4.073-17.68-6.742-4.103-2.733-5.188-5.127-5.189-6.672v-11.21zm0 24c0.2532 0.1797 0.4934 0.3695 0.7539 0.543 5.122 3.411 12.21 6.079 20.38 7.895 8.223 1.826 17.48 2.775 26.87 2.775 9.384 0 18.64-0.9494 26.87-2.775 8.178-1.816 15.26-4.484 20.38-7.895 0.2586-0.1722 0.4967-0.3608 0.748-0.5391v11.21h0.00391c-0.00354 1.545-1.089 3.936-5.188 6.666-4.007 2.669-10.05 5.048-17.68 6.742-7.587 1.685-16.26 2.586-25.13 2.586-8.872 0-17.55-0.9009-25.13-2.586-7.631-1.694-13.67-4.073-17.68-6.742-4.098-2.73-5.186-5.121-5.189-6.666-4e-6 -0.00182 1e-6 -0.00405 0-0.00586v-11.21z" fill="url(#paint1_linear)"/>
  <path d="m155.6 17v44.23c0 8.91 7.259 15.93 16.17 15.93l44.23-0.0112v-2l-60.4-58.15z" fill="#282828" opacity=".25"/>
  <path d="m155.6 15v44.23c0 8.91 7.259 15.93 16.17 15.93l44.23-0.0112-60.4-60.15z" fill="url(#paint3_linear)"/>
  <defs>
    <linearGradient id="paint0_linear" x1="39" x2="39" y1="15" y2="240.2" gradientUnits="userSpaceOnUse">
      <stop stop-color="#fabd2f" offset="1e-7"/>
      <stop stop-color="#b57614" offset="1"/>
    </linearGradient>
    <linearGradient id="paint1_linear" x1="72" x2="72" y1="116" y2="188" gradientUnits="userSpaceOnUse">
      <stop stop-color="#fabd2f" offset="1e-7"/>
      <stop stop-color="#b57614" offset="1"/>
    </linearGradient>
    <linearGradient id="paint3_linear" x1="155.6" x2="155.6" y1="15" y2="75.16" gradientUnits="userSpaceOnUse">
      <stop stop-color="#fabd2f" offset="1e-7"/>
      <stop stop-color="#b57614" offset="1"/>
    </linearGradient>
  </defs>
</svg>
